src/icons/brands/shippo.svg

<svg fill="none" height="31" viewBox="0 0 120 31" width="120" xmlns="http://www.w3.org/2000/svg"><g fill="#1b1d1d"><path d="m42.9327 25.8935c-.818.0009-1.6338-.0853-2.4346-.2573-.7632-.1568-1.4934-.4525-2.1564-.8733-.6393-.4143-1.1775-.9754-1.5728-1.6395-.4127-.6836-.5618-1.7297-.5691-1.7747-.044-.2708.0313-.5478.2054-.7552.1742-.2075.4289-.3238.6946-.3172h2.1819c.5381.012.9921.4171 1.0818.9653.0128.0301.0509.1089.1455.278.1441.2626.3428.489.5818.6629.2558.1811.5409.3134.8418.3906.3358.088.6809.1321 1.0273.1315.2667-.0023.5323-.0331.7928-.092.2543-.0554.4993-.149.7273-.278.2048-.1166.3818-.2789.5182-.4751.1359-.2107.2028-.4608.1909-.7137 0-.1728 0-.6967-.9691-1.0742-.7419-.2873-2.4383-.7043-2.4546-.708-.3946-.0958-1.0364-.2573-1.4273-.3569-.0164 0-.4091-.1051-.9419-.2835-.5266-.1706-1.0274-.4172-1.4873-.7325-.4447-.3027-.8177-.7052-1.0909-1.1775-.2902-.5336-.4348-1.1385-.4182-1.7503 0-.9785.1818-1.7973.5673-2.4415.3658-.6224.8781-1.1392 1.4891-1.5024.6299-.3715 1.3169-.6288 2.031-.7606.7478-.1428 1.5068-.2144 2.2673-.2141.757-.0013 1.5123.0755 2.2546.2291.7063.1405 1.3833.4081 2 .7907.5954.3802 1.1006.8936 1.4782 1.5024.2737.4891.4655 1.0225.5673 1.5776.056.2679-.0104.5476-.1801.7584-.1696.2108-.4237.3293-.689.3214h-2.1819c-.5508-.0145-1.03-.3935-1.1873-.939-.0881-.2701-.2693-.4974-.5091-.6385-.5148-.2609-1.083-.3898-1.6564-.3756-.2248.0008-.4494.0146-.6727.0413-.2096.0204-.415.0736-.6091.1577-.1605.0732-.3024.1838-.4146.3231-.1108.1511-.165.3385-.1527.5277-.0086.2512.0978.492.2873.6498.2643.2211.5674.3875.8927.4902.4465.1524.9012.2778 1.3619.3756.5036.1089 1.0418.231 1.6.3643.5611.1311 1.1152.2922 1.66.4827.5308.1819 1.0326.4439 1.4892.7775.4421.3253.81.7464 1.0782 1.2338.2908.5618.4337 1.1925.4145 1.8292.068 1.6831-.747 3.2735-2.1327 4.1618-.653.4215-1.3763.7138-2.1328.862-.786.1627-1.5857.2451-2.3873.246z"/><path d="m61.3241 25.5369c-.5563 0-1.0073-.4658-1.0073-1.0404v-6.6389c0-.4113-.0291-1.078-.0655-1.4855-.0309-.3493-.1672-1.3522-.4327-1.7841-.3091-.5033-.86-.7512-1.6855-.7512-.9636 0-1.6364.2779-2.0509.8488-.3455.4752-.5346 1.7992-.5782 2.2706-.0382.4094-.0691 1.0742-.0691 1.4836v6.0473c0 .5746-.451 1.0404-1.0073 1.0404h-2.3637c-.5559-.001-1.0063-.4662-1.0073-1.0404v-18.40474c.001-.57418.4514-1.0394 1.0073-1.04043h2.3637c.5563 0 1.0073.46582 1.0073 1.04043v6.03784l.0455-.0582c.029-.0375.7018-.9089 1.5054-1.3146.7237-.3815 1.5223-.587 2.3346-.601 1.0582 0 1.9455.154 2.6328.4564.6549.2713 1.2292.7155 1.6655 1.2883.4198.5882.7091 1.2647.8473 1.9813.1053.5724.1727 1.1516.2018 1.7335.0182.4206.0345 1.1043.0345 1.5249v7.36c-.001.575-.4525 1.0405-1.0091 1.0405z"/><g clip-rule="evenodd" fill-rule="evenodd"><path d="m66.8848 7.83835c0 .57461.451 1.04043 1.0073 1.04043l2.3728-.00563c.5559-.00104 1.0063-.46625 1.0073-1.04043v-1.75033c-.0005-.27742-.108-.5432-.2988-.73848s-.449-.30395-.7176-.30195h-2.3637c-.5563 0-1.0073.46581-1.0073 1.04043zm.0002 16.65815c0 .5746.4509 1.0404 1.0073 1.0404l2.3727-.0056c.5559-.0011 1.0063-.4663 1.0073-1.0405v-12.9114c-.0004-.2775-.108-.5432-.2987-.7385-.1908-.1953-.4491-.304-.7177-.302h-2.3636c-.5564 0-1.0073.4659-1.0073 1.0405z"/><path d="m73.4551 29.5411c0 .5749.4507 1.0413 1.0073 1.0423l2.3636.0075c.5567-.001 1.0073-.4674 1.0073-1.0423v-5.3937l.06.0695c.3996.4499.8722.8242 1.3964 1.1062.7851.3812 1.6435.5738 2.511.5634.9746.0214 1.9399-.1995 2.8146-.6442.7843-.4158 1.4703-1.0051 2.0091-1.7259.5435-.7379.9486-1.5742 1.1946-2.4659.2605-.9327.3915-1.8989.3891-2.8696.0028-1.0202-.1281-2.036-.3891-3.0199-.2388-.93-.648-1.804-1.2055-2.5748-.5535-.7427-1.2579-1.3511-2.0637-1.7822-.9206-.4688-1.9375-.7001-2.9637-.6742-.8618-.0072-1.7143.1853-2.4946.5634-.5403.3015-1.0193.7076-1.4109 1.1963l-.0291.0375v-.3549c0-.5746-.451-1.0404-1.0073-1.0404h-2.1818c-.5559.001-1.0063.4662-1.0073 1.0404zm5.863-15.4732c.4363-.2562.933-.3817 1.4345-.3625.4933-.0172.9813.1084 1.4091.3625.3849.2455.7107.5781.9528.9728.261.4291.4457.9029.5454 1.3991.1134.54.1707 1.0908.171 1.6433.0005.5525-.0525 1.1036-.1582 1.6452-.0865.4852-.2611.9491-.5146 1.3672-.2369.3842-.5576.7058-.9364.939-1.3221.708-2.9468.3084-3.8182-.939-.2548-.4204-.434-.8848-.5291-1.371-.1131-.5393-.1698-1.0896-.1691-1.6414-.0009-.5623.0515-1.1234.1564-1.6752.0895-.4893.2645-.9576.5164-1.3822.2381-.3895.5597-.7172.94-.9578z"/><path d="m89.2871 29.541c0 .575.4507 1.0413 1.0073 1.0424l2.371.0075c.5566-.0011 1.0073-.4674 1.0073-1.0423v-5.3938l.06.0695c.3991.4504.8717.8248 1.3963 1.1062.7845.3812 1.6423.5738 2.5092.5634.9784.0203 1.9472-.2039 2.8238-.6535.781-.4165 1.464-1.0058 2-1.726.544-.7374.949-1.5739 1.194-2.4658.261-.9327.392-1.8989.39-2.8697.002-1.02-.128-2.0357-.388-3.0198-.241-.927-.651-1.7977-1.209-2.5654-.552-.7432-1.256-1.3516-2.062-1.7823-.9205-.4683-1.9373-.6996-2.9634-.6742-.8624-.0072-1.7154.1854-2.4964.5634-.5415.3013-1.0217.7075-1.4145 1.1963l-.0291.0376v-.355c-.001-.5742-.4514-1.0394-1.0073-1.0404h-2.1819c-.5563 0-1.0073.4658-1.0073 1.0404zm5.8611-15.4732c.437-.2561.9343-.3816 1.4364-.3624.4951-.0199.9858.1037 1.4164.3568.3818.2487.7043.5832.9436.9785.2611.4291.4458.9029.5455 1.3991.1128.54.1695 1.0909.1691 1.6433.0002.5523-.0522 1.1034-.1564 1.6451-.087.4853-.2623.9492-.5163 1.3672-.8195 1.3164-2.5008 1.7264-3.8037.9278-.3828-.2269-.7076-.545-.9473-.9278-.2548-.4203-.4341-.8848-.5291-1.3709-.1138-.5392-.1711-1.0895-.1709-1.6414-.0013-.5625.0517-1.1236.1581-1.6752.0884-.4896.2635-.9582.5164-1.3823.2372-.3895.5583-.7173.9382-.9578z"/><path d="m109.417 25.3493c.983.3758 2.024.5605 3.071.5446 1.052.0152 2.097-.1694 3.084-.5446.893-.3482 1.704-.8907 2.376-1.5907.67-.7095 1.187-1.5559 1.52-2.4847.365-1.0326.545-2.1253.531-3.2246.015-1.1038-.164-2.2012-.527-3.2396-.655-1.8886-2.079-3.3853-3.896-4.0941-1.988-.75362-4.171-.75362-6.159 0-1.811.7161-3.229 2.2126-3.883 4.0979-.365 1.038-.545 2.1355-.531 3.2396-.015 1.0993.165 2.192.531 3.2246.333.9288.851 1.7752 1.52 2.4846.669.697 1.475 1.2381 2.363 1.587zm.646-10.335c.514-.8656 1.446-1.3704 2.427-1.3146v.0056c.521-.0195 1.037.1056 1.495.3625.39.2334.719.5599.962.9522.252.4256.427.8953.516 1.386.104.5424.157 1.094.156 1.647.001.548-.051 1.0947-.156 1.632-.092.4899-.268.959-.518 1.386-.238.3909-.566.7139-.957.939-.461.2505-.977.3723-1.498.3531-.515.0198-1.026-.1013-1.482-.3512-.386-.231-.711-.5575-.945-.9503-.25-.427-.426-.8962-.518-1.386-.105-.5372-.157-1.084-.157-1.632 0-.553.053-1.1046.157-1.647.088-.4899.264-.9585.518-1.3823z"/><path d="m29.8177 6.82606c.8651.69547 1.5394 1.61211 1.9564 2.65929.3818.93495.5462 1.94925.48 2.96165-.069.9612-.3663 1.89-.8655 2.7044-.5295.8489-1.2532 1.55-2.1073 2.0414-.4793.2546-.9722.4809-1.4764.678-.4691.2028-.9254.4282-1.3782.6667-1.0491.5465-2.0545 1.1568-3.0491 1.7916-1.0855.693-2.1509 1.4142-3.2055 2.1654-.7691.5427-3.3946 4.4979-4.7019 6.5111 5.9779-.259 11.0365-4.6457 12.3184-10.6822l.1709-.0751c.0919-.0411.1849-.0801.2805-.1202.031-.013.0624-.0261.094-.0395.3916-.1539.773-.3339 1.1419-.539.0836-.0488.1618-.0995.2418-.1521-.902 7.1705-6.5092 12.729-13.4824 13.3655-6.97317.6365-13.43719-3.8201-15.542752-10.716-2.105568-6.8959.713562-14.37655 6.778632-17.98735 6.06502-3.6108 13.74502-2.380672 18.46642 2.95786h-.1818c-.3958 0-.791.03265-1.1818.09766-.281.045-.5591.10772-.8328.1878-3.8286-3.56046-9.3153-4.488856-14.04368-2.37629-4.72836 2.11257-7.83052 6.87835-7.94022 12.19842 1.56002-.5108 4.26915-1.4348 4.5837-1.7691.67092-.7137 1.34184-1.433 1.97094-2.1842.19305-.2185.37107-.4507.53273-.6948.04956-.081.09041-.1672.12182-.2573.09867-.26603.23802-.51395.41273-.73435-.08844-.22164-.15957-.45024-.21272-.6836-.08412-.17158-.14529-.35417-.18183-.54275-.112-.4804-.15186-.97572-.11818-1.46862.02909-.40003.14728-1.01414.65092-1.01414.16776.02611.3255.09881.45637.21034.51112.34452.98422.74567 1.41092 1.19631h.0473l1.6109-.18781c.6668-.10125 1.3413-.13709 2.0146-.10705.2939.02841.5836.09142.8636.18781.291.09765.5855.18029.8837.2479.5676.13005 1.1477.19305 1.7291.1878 1.1169-.02296 2.2087-.34663 3.1673-.93902.1268-.05679.2537-.1145.3806-.17226.1879-.08549.3761-.17111.5649-.25405.6389-.29532 1.3106-.5079 2-.6329.6652-.11189 1.3427-.12265 2.011-.03192 1.149.15532 2.2385.61894 3.16 1.34467zm-14.2206 4.65734c.4741.2996 1.0759.2767 1.5273-.0582.4291-.3438.5913-.9362.4-1.46113-.2005-.54142-.6989-.90316-1.26-.9146-.509-.01228-.9759.28192-1.2.74876.0238-.07064.0336-.09866.0335-.09867-.0001-.00003-.0283.08-.065.16932.0099-.02396.0204-.04752.0315-.07065-.0089.02649-.0197.05898-.0328.09823-.1053.31724-.0598.19244-.0031.03666l.0031-.00849c-.0204.05677-.0362.11517-.0472.17467-.0899.5475.153 1.0962.6127 1.3841z"/></g></g></svg>

<svg width="120" height="31" viewBox="0 0 120 31" fill="none" xmlns="http://www.w3.org/2000/svg">
<path d="M42.9327 25.8935C42.1147 25.8944 41.2989 25.8082 40.4981 25.6362C39.7349 25.4794 39.0047 25.1837 38.3417 24.7629C37.7024 24.3486 37.1642 23.7875 36.7689 23.1234C36.3562 22.4398 36.2071 21.3937 36.1998 21.3487C36.1558 21.0779 36.2311 20.8009 36.4052 20.5935C36.5794 20.386 36.8341 20.2697 37.0998 20.2763H39.2817C39.8198 20.2883 40.2738 20.6934 40.3635 21.2416C40.3763 21.2717 40.4144 21.3505 40.509 21.5196C40.6531 21.7822 40.8518 22.0086 41.0908 22.1825C41.3466 22.3636 41.6317 22.4959 41.9326 22.5731C42.2684 22.6611 42.6135 22.7052 42.9599 22.7046C43.2266 22.7023 43.4922 22.6715 43.7527 22.6126C44.007 22.5572 44.252 22.4636 44.48 22.3346C44.6848 22.218 44.8618 22.0557 44.9982 21.8595C45.1341 21.6488 45.201 21.3987 45.1891 21.1458C45.1891 20.973 45.1891 20.4491 44.22 20.0716C43.4781 19.7843 41.7817 19.3673 41.7654 19.3636C41.3708 19.2678 40.729 19.1063 40.3381 19.0067C40.3217 19.0067 39.929 18.9016 39.3962 18.7232C38.8696 18.5526 38.3688 18.306 37.9089 17.9907C37.4642 17.688 37.0912 17.2855 36.818 16.8132C36.5278 16.2796 36.3832 15.6747 36.3998 15.0629C36.3998 14.0844 36.5816 13.2656 36.9671 12.6214C37.3329 11.999 37.8452 11.4822 38.4562 11.119C39.0861 10.7475 39.7731 10.4902 40.4872 10.3584C41.235 10.2156 41.994 10.144 42.7545 10.1443C43.5115 10.143 44.2668 10.2198 45.0091 10.3734C45.7154 10.5139 46.3924 10.7815 47.0091 11.1641C47.6045 11.5443 48.1097 12.0577 48.4873 12.6665C48.761 13.1556 48.9528 13.689 49.0546 14.2441C49.1106 14.512 49.0442 14.7917 48.8745 15.0025C48.7049 15.2133 48.4508 15.3318 48.1855 15.3239H46.0036C45.4528 15.3094 44.9736 14.9304 44.8163 14.3849C44.7282 14.1148 44.547 13.8875 44.3072 13.7464C43.7924 13.4855 43.2242 13.3566 42.6508 13.3708C42.426 13.3716 42.2014 13.3854 41.9781 13.4121C41.7685 13.4325 41.5631 13.4857 41.369 13.5698C41.2085 13.643 41.0666 13.7536 40.9544 13.8929C40.8436 14.044 40.7894 14.2314 40.8017 14.4206C40.7931 14.6718 40.8995 14.9126 41.089 15.0704C41.3533 15.2915 41.6564 15.4579 41.9817 15.5606C42.4282 15.713 42.8829 15.8384 43.3436 15.9362C43.8472 16.0451 44.3854 16.1672 44.9436 16.3005C45.5047 16.4316 46.0588 16.5927 46.6036 16.7832C47.1344 16.9651 47.6362 17.2271 48.0928 17.5607C48.5349 17.886 48.9028 18.3071 49.171 18.7945C49.4618 19.3563 49.6047 19.987 49.5855 20.6237C49.6535 22.3068 48.8385 23.8972 47.4528 24.7855C46.7998 25.207 46.0765 25.4993 45.32 25.6475C44.534 25.8102 43.7343 25.8926 42.9327 25.8935Z" fill="#1B1D1D"/>
<path d="M61.3241 25.5369C60.7678 25.5369 60.3168 25.0711 60.3168 24.4965V17.8576C60.3168 17.4463 60.2877 16.7796 60.2513 16.3721C60.2204 16.0228 60.0841 15.0199 59.8186 14.588C59.5095 14.0847 58.9586 13.8368 58.1331 13.8368C57.1695 13.8368 56.4967 14.1147 56.0822 14.6856C55.7367 15.1608 55.5476 16.4848 55.504 16.9562C55.4658 17.3656 55.4349 18.0304 55.4349 18.4398V24.4871C55.4349 25.0617 54.9839 25.5275 54.4276 25.5275H52.0639C51.508 25.5265 51.0576 25.0613 51.0566 24.4871V6.08236C51.0576 5.50818 51.508 5.04296 52.0639 5.04193H54.4276C54.9839 5.04193 55.4349 5.50775 55.4349 6.08236V12.1202L55.4804 12.062C55.5094 12.0245 56.1822 11.1531 56.9858 10.7474C57.7095 10.3659 58.5081 10.1604 59.3204 10.1464C60.3786 10.1464 61.2659 10.3004 61.9532 10.6028C62.6081 10.8741 63.1824 11.3183 63.6187 11.8911C64.0385 12.4793 64.3278 13.1558 64.466 13.8724C64.5713 14.4448 64.6387 15.024 64.6678 15.6059C64.686 16.0265 64.7023 16.7102 64.7023 17.1308V24.4908C64.7013 25.0658 64.2498 25.5313 63.6932 25.5313L61.3241 25.5369Z" fill="#1B1D1D"/>
<path fill-rule="evenodd" clip-rule="evenodd" d="M66.8848 7.83835C66.8848 8.41296 67.3358 8.87878 67.8921 8.87878L70.2649 8.87315C70.8208 8.87211 71.2712 8.4069 71.2722 7.83272V6.08239C71.2717 5.80497 71.1642 5.53919 70.9734 5.34391C70.7826 5.14863 70.5244 5.03996 70.2558 5.04196H67.8921C67.3358 5.04196 66.8848 5.50777 66.8848 6.08239V7.83835ZM66.885 24.4965C66.885 25.0711 67.3359 25.5369 67.8923 25.5369L70.265 25.5313C70.8209 25.5302 71.2713 25.065 71.2723 24.4908V11.5794C71.2719 11.3019 71.1643 11.0362 70.9736 10.8409C70.7828 10.6456 70.5245 10.5369 70.2559 10.5389H67.8923C67.3359 10.5389 66.885 11.0048 66.885 11.5794V24.4965Z" fill="#1B1D1D"/>
<path fill-rule="evenodd" clip-rule="evenodd" d="M73.4551 29.5411C73.4551 30.116 73.9058 30.5824 74.4624 30.5834L76.826 30.5909C77.3827 30.5899 77.8333 30.1235 77.8333 29.5486V24.1549L77.8933 24.2244C78.2929 24.6743 78.7655 25.0486 79.2897 25.3306C80.0748 25.7118 80.9332 25.9044 81.8007 25.894C82.7753 25.9154 83.7406 25.6945 84.6153 25.2498C85.3996 24.834 86.0856 24.2447 86.6244 23.5239C87.1679 22.786 87.573 21.9497 87.819 21.058C88.0795 20.1253 88.2105 19.1591 88.2081 18.1884C88.2109 17.1682 88.08 16.1524 87.819 15.1685C87.5802 14.2385 87.171 13.3645 86.6135 12.5937C86.06 11.851 85.3556 11.2426 84.5498 10.8115C83.6292 10.3427 82.6123 10.1114 81.5861 10.1373C80.7243 10.1301 79.8718 10.3226 79.0915 10.7007C78.5512 11.0022 78.0722 11.4083 77.6806 11.897L77.6515 11.9345V11.5796C77.6515 11.005 77.2005 10.5392 76.6442 10.5392H74.4624C73.9065 10.5402 73.4561 11.0054 73.4551 11.5796V29.5411ZM79.3181 14.0679C79.7544 13.8117 80.2511 13.6862 80.7526 13.7054C81.2459 13.6882 81.7339 13.8138 82.1617 14.0679C82.5466 14.3134 82.8724 14.646 83.1145 15.0407C83.3755 15.4698 83.5602 15.9436 83.6599 16.4398C83.7733 16.9798 83.8306 17.5306 83.8309 18.0831C83.8314 18.6356 83.7784 19.1867 83.6727 19.7283C83.5862 20.2135 83.4116 20.6774 83.1581 21.0955C82.9212 21.4797 82.6005 21.8013 82.2217 22.0345C80.8996 22.7425 79.2749 22.3429 78.4035 21.0955C78.1487 20.6751 77.9695 20.2107 77.8744 19.7245C77.7613 19.1852 77.7046 18.6349 77.7053 18.0831C77.7044 17.5208 77.7568 16.9597 77.8617 16.4079C77.9512 15.9186 78.1262 15.4503 78.3781 15.0257C78.6162 14.6362 78.9378 14.3085 79.3181 14.0679Z" fill="#1B1D1D"/>
<path fill-rule="evenodd" clip-rule="evenodd" d="M89.2871 29.541C89.2871 30.116 89.7378 30.5823 90.2944 30.5834L92.6654 30.5909C93.222 30.5898 93.6727 30.1235 93.6727 29.5486V24.1548L93.7327 24.2243C94.1318 24.6747 94.6044 25.0491 95.129 25.3305C95.9135 25.7117 96.7713 25.9043 97.6382 25.8939C98.6166 25.9142 99.5854 25.69 100.462 25.2404C101.243 24.8239 101.926 24.2346 102.462 23.5144C103.006 22.777 103.411 21.9405 103.656 21.0486C103.917 20.1159 104.048 19.1497 104.046 18.1789C104.048 17.1589 103.918 16.1432 103.658 15.1591C103.417 14.2321 103.007 13.3614 102.449 12.5937C101.897 11.8505 101.193 11.2421 100.387 10.8114C99.4665 10.3431 98.4497 10.1118 97.4236 10.1372C96.5612 10.13 95.7082 10.3226 94.9272 10.7006C94.3857 11.0019 93.9055 11.4081 93.5127 11.8969L93.4836 11.9345V11.5795C93.4826 11.0053 93.0322 10.5401 92.4763 10.5391H90.2944C89.7381 10.5391 89.2871 11.0049 89.2871 11.5795V29.541ZM95.1482 14.0678C95.5852 13.8117 96.0825 13.6862 96.5846 13.7054C97.0797 13.6855 97.5704 13.8091 98.001 14.0622C98.3828 14.3109 98.7053 14.6454 98.9446 15.0407C99.2057 15.4698 99.3904 15.9436 99.4901 16.4398C99.6029 16.9798 99.6596 17.5307 99.6592 18.0831C99.6594 18.6354 99.607 19.1865 99.5028 19.7282C99.4158 20.2135 99.2405 20.6774 98.9865 21.0954C98.167 22.4118 96.4857 22.8218 95.1828 22.0232C94.8 21.7963 94.4752 21.4782 94.2355 21.0954C93.9807 20.6751 93.8014 20.2106 93.7064 19.7245C93.5926 19.1853 93.5353 18.635 93.5355 18.0831C93.5342 17.5206 93.5872 16.9595 93.6936 16.4079C93.782 15.9183 93.9571 15.4497 94.21 15.0256C94.4472 14.6361 94.7683 14.3083 95.1482 14.0678Z" fill="#1B1D1D"/>
<path fill-rule="evenodd" clip-rule="evenodd" d="M109.417 25.3493C110.4 25.7251 111.441 25.9098 112.488 25.8939C113.54 25.9091 114.585 25.7245 115.572 25.3493C116.465 25.0011 117.276 24.4586 117.948 23.7586C118.618 23.0491 119.135 22.2027 119.468 21.2739C119.833 20.2413 120.013 19.1486 119.999 18.0493C120.014 16.9455 119.835 15.8481 119.472 14.8097C118.817 12.9211 117.393 11.4244 115.576 10.7156C113.588 9.96198 111.405 9.96198 109.417 10.7156C107.606 11.4317 106.188 12.9282 105.534 14.8135C105.169 15.8515 104.989 16.949 105.003 18.0531C104.988 19.1524 105.168 20.2451 105.534 21.2777C105.867 22.2065 106.385 23.0529 107.054 23.7623C107.723 24.4593 108.529 25.0004 109.417 25.3493ZM110.063 15.0143C110.577 14.1487 111.509 13.6439 112.49 13.6997V13.7053C113.011 13.6858 113.527 13.8109 113.985 14.0678C114.375 14.3012 114.704 14.6277 114.947 15.02C115.199 15.4456 115.374 15.9153 115.463 16.406C115.567 16.9484 115.62 17.5 115.619 18.053C115.62 18.601 115.568 19.1477 115.463 19.685C115.371 20.1749 115.195 20.644 114.945 21.071C114.707 21.4619 114.379 21.7849 113.988 22.01C113.527 22.2605 113.011 22.3823 112.49 22.3631C111.975 22.3829 111.464 22.2618 111.008 22.0119C110.622 21.7809 110.297 21.4544 110.063 21.0616C109.813 20.6346 109.637 20.1654 109.545 19.6756C109.44 19.1384 109.388 18.5916 109.388 18.0436C109.388 17.4906 109.441 16.939 109.545 16.3966C109.633 15.9067 109.809 15.4381 110.063 15.0143Z" fill="#1B1D1D"/>
<path fill-rule="evenodd" clip-rule="evenodd" d="M29.8177 6.82606C30.6828 7.52153 31.3571 8.43817 31.7741 9.48535C32.1559 10.4203 32.3203 11.4346 32.2541 12.447C32.1851 13.4082 31.8878 14.337 31.3886 15.1514C30.8591 16.0003 30.1354 16.7014 29.2813 17.1928C28.802 17.4474 28.3091 17.6737 27.8049 17.8708C27.3358 18.0736 26.8795 18.299 26.4267 18.5375C25.3776 19.084 24.3722 19.6943 23.3776 20.3291C22.2921 21.0221 21.2267 21.7433 20.1721 22.4945C19.403 23.0372 16.7775 26.9924 15.4702 29.0056C21.4481 28.7466 26.5067 24.3599 27.7886 18.3234L27.9595 18.2483C28.0514 18.2072 28.1444 18.1682 28.24 18.1281C28.271 18.1151 28.3024 18.102 28.334 18.0886C28.7256 17.9347 29.107 17.7547 29.4759 17.5496C29.5595 17.5008 29.6377 17.4501 29.7177 17.3975C28.8157 24.568 23.2085 30.1265 16.2353 30.763C9.26213 31.3995 2.79811 26.9429 0.692548 20.047C-1.41302 13.1511 1.40611 5.67045 7.47118 2.05965C13.5362 -1.55115 21.2162 -0.321022 25.9376 5.01751H25.7558C25.36 5.01751 24.9648 5.05016 24.574 5.11517C24.293 5.16017 24.0149 5.22289 23.7412 5.30297C19.9126 1.74251 14.4259 0.814114 9.69752 2.92668C4.96916 5.03925 1.867 9.80503 1.7573 15.1251C3.31732 14.6143 6.02645 13.6903 6.341 13.356C7.01192 12.6423 7.68284 11.923 8.31194 11.1718C8.50499 10.9533 8.68301 10.7211 8.84467 10.477C8.89423 10.396 8.93508 10.3098 8.96649 10.2197C9.06516 9.95367 9.20451 9.70575 9.37922 9.48535C9.29078 9.26371 9.21965 9.03511 9.1665 8.80175C9.08238 8.63017 9.02121 8.44758 8.98467 8.259C8.87267 7.7786 8.83281 7.28328 8.86649 6.79038C8.89558 6.39035 9.01377 5.77624 9.51741 5.77624C9.68517 5.80235 9.84291 5.87505 9.97378 5.98658C10.4849 6.3311 10.958 6.73225 11.3847 7.18289H11.432L13.0429 6.99508C13.7097 6.89383 14.3842 6.85799 15.0575 6.88803C15.3514 6.91644 15.6411 6.97945 15.9211 7.07584C16.2121 7.17349 16.5066 7.25613 16.8048 7.32374C17.3724 7.45379 17.9525 7.51679 18.5339 7.51154C19.6508 7.48858 20.7426 7.16491 21.7012 6.57252C21.828 6.51573 21.9549 6.45802 22.0818 6.40026C22.2697 6.31477 22.4579 6.22915 22.6467 6.14621C23.2856 5.85089 23.9573 5.63831 24.6467 5.51331C25.3119 5.40142 25.9894 5.39066 26.6577 5.48139C27.8067 5.63671 28.8962 6.10033 29.8177 6.82606ZM15.5971 11.4834C16.0712 11.783 16.673 11.7601 17.1244 11.4252C17.5535 11.0814 17.7157 10.489 17.5244 9.96407C17.3239 9.42265 16.8255 9.06091 16.2644 9.04947C15.7554 9.03719 15.2885 9.33139 15.0644 9.79823C15.0882 9.72759 15.098 9.69957 15.0979 9.69956C15.0978 9.69953 15.0696 9.77956 15.0329 9.86888C15.0428 9.84492 15.0533 9.82136 15.0644 9.79823C15.0555 9.82472 15.0447 9.85721 15.0316 9.89646C14.9263 10.2137 14.9718 10.0889 15.0285 9.93312L15.0316 9.92463C15.0112 9.9814 14.9954 10.0398 14.9844 10.0993C14.8945 10.6468 15.1374 11.1955 15.5971 11.4834Z" fill="#1B1D1D"/>
</svg>
